src/symbolic/actions/view-fullscreen-symbolic.svg

<svg xmlns="http://www.w3.org/2000/svg" viewBox="0 0 16 16" id="svg2" version="1.1"><defs id="defs3051"><style type="text/css" id="current-color-scheme"></style></defs><path d="M2 3v3h1V4h3V3H2zm8 0v1h3v2h1V3h-4zm-8 7v3h4v-1H3v-2H2zm11 0v2h-3v1h4v-3h-1z" id="rect818" opacity="1" fill="#5d656b" fill-opacity="1" fill-rule="evenodd" stroke="none" stroke-width="2" stroke-linecap="square" stroke-linejoin="miter" stroke-miterlimit="4" stroke-dasharray="none" stroke-opacity="1" paint-order="fill markers stroke"/></svg>

<?xml version="1.0" encoding="UTF-8" standalone="no"?>
<svg
   xmlns:dc="http://purl.org/dc/elements/1.1/"
   xmlns:cc="http://creativecommons.org/ns#"
   xmlns:rdf="http://www.w3.org/1999/02/22-rdf-syntax-ns#"
   xmlns:svg="http://www.w3.org/2000/svg"
   xmlns="http://www.w3.org/2000/svg"
   xmlns:sodipodi="http://sodipodi.sourceforge.net/DTD/sodipodi-0.dtd"
   xmlns:inkscape="http://www.inkscape.org/namespaces/inkscape"
   viewBox="0 0 16 16"
   id="svg2"
   version="1.1"
   inkscape:version="0.92.4 (5da689c313, 2019-01-14)"
   sodipodi:docname="view-fullscreen-symbolic.svg">
  <metadata
     id="metadata10">
    <rdf:RDF>
      <cc:Work
         rdf:about="">
        <dc:format>image/svg+xml</dc:format>
        <dc:type
           rdf:resource="http://purl.org/dc/dcmitype/StillImage" />
      </cc:Work>
    </rdf:RDF>
  </metadata>
  <sodipodi:namedview
     pagecolor="#ffffff"
     bordercolor="#666666"
     borderopacity="1"
     objecttolerance="10"
     gridtolerance="10"
     guidetolerance="10"
     inkscape:pageopacity="0"
     inkscape:pageshadow="2"
     inkscape:window-width="1366"
     inkscape:window-height="704"
     id="namedview8"
     showgrid="true"
     inkscape:zoom="14.56198"
     inkscape:cx="7.5598233"
     inkscape:cy="4.1064409"
     inkscape:current-layer="svg2"
     inkscape:window-x="0"
     inkscape:window-y="34"
     inkscape:window-maximized="1">
    <inkscape:grid
       type="xygrid"
       id="grid816" />
  </sodipodi:namedview>
  <defs
     id="defs3051">
    <style
       type="text/css"
       id="current-color-scheme">
      .ColorScheme-Text {
        color:#bebebe;
      }
      </style>
  </defs>
  <path
     style="opacity:1;fill:#bebebe;fill-opacity:1;fill-rule:evenodd;stroke:none;stroke-width:2;stroke-linecap:square;stroke-linejoin:miter;stroke-miterlimit:4;stroke-dasharray:none;stroke-opacity:1;paint-order:fill markers stroke"
     d="M 2 3 L 2 6 L 3 6 L 3 4 L 6 4 L 6 3 L 2 3 z M 10 3 L 10 4 L 13 4 L 13 6 L 14 6 L 14 3 L 10 3 z M 2 10 L 2 13 L 6 13 L 6 12 L 3 12 L 3 10 L 2 10 z M 13 10 L 13 12 L 10 12 L 10 13 L 14 13 L 14 10 L 13 10 z "
     id="rect818" />
</svg>
